gnomExtensions/.local/share/gnome-shell/extensions/Bluetooth-Battery-Meter@maniacx.github.com/icons/hicolor/scalable/actions/bbm-case-oval-symbolic.svg

<svg height="16" viewBox="0 0 16 16" width="16" xmlns="http://www.w3.org/2000/svg"><path d="m7.18826 2.676783c-1.623225 0-2.792903.191061-3.7.644609-.97871.429678-1.670798 1.097956-2.124347 1.861825h13.296087c-.47742-.763869-1.169686-1.432147-2.076783-1.861825-.907096-.453548-2.076774-.644609-3.7-.644609zm-6.134695 3.103217c-.310322.668387-.453565 1.43226-.453565 2.22 0 1.957421.931019 3.747639 2.840696 4.678609.907097.453547 2.100689.644608 3.723914.644608h1.694694c1.623225 0 2.792903-.191061 3.7-.644608 1.909678-.93097 2.840696-2.745059 2.840696-4.678609 0-.78774-.143241-1.527742-.453565-2.22zm6.931456 1.350185c.606533-.008185 1.105616.475392 1.11657 1.081882l.000262.019972c-.000009.606586-.490281 1.099089-1.09686 1.101853-.606597.002758-1.101339-.485289-1.106846-1.091867-.005539-.606614.480291-1.103603 1.086874-1.11184z" fill="#2e3436"/></svg>

<?xml version="1.0" encoding="UTF-8"?>
<svg height="16px" viewBox="0 0 16 16" width="16px" xmlns="http://www.w3.org/2000/svg">
    <path d="M 7.18826,2.676783 C 5.565035,2.676783 4.395357,2.867844 3.48826,3.321392 C 2.50955,3.75107 1.817462,4.419348 1.363913,5.183217 H 14.66 C 14.18258,4.419348 13.490314,3.75107 12.583217,3.321392 C 11.676121,2.867844 10.506443,2.676783 8.883217,2.676783 Z M 1.053565,5.78 C 0.743243,6.448387 0.6,7.21226 0.6,8 C 0.6,9.957421 1.531019,11.747639 3.440696,12.678609 C 4.347793,13.132156 5.541385,13.323217 7.16461,13.323217 H 8.859304 C 10.482529,13.323217 11.652207,13.132156 12.559304,12.678609 C 14.468982,11.747639 15.4,9.93355 15.4,8 C 15.4,7.21226 15.256759,6.472258 14.946435,5.78 Z M 7.985021,7.130185 C 8.591554,7.122 9.090637,7.605577 9.101591,8.212067 L 9.101853,8.232039 C 9.101844,8.838625 8.611572,9.331128 8.004993,9.333892 C 7.398396,9.33665 6.903654,8.848603 6.898147,8.242025 C 6.892608,7.635411 7.378438,7.138422 7.985021,7.130185 Z" fill="#2e3434"/>
</svg>
